X:11
T:Oh Callar Spirlings (variation 10)
C:Domenico Corri
S:Jack Campin <abc:purr.demon.co.uk> abcusers 2004-12-6
V:1
V:2 bass
m:Tn2 = o//n//o//n//o//n//m//n//
M:3/4
L:1/8
Q:1/4=96
K:D Minor
[V:1] "^P."\
      A,|D2  D2 ^C2  |D2   D2 =B,2 | C2        C2    T=B,2  |   C2    C2  ^C2  |
[V:2] z |D,A,F,A,E,A,|F,A,`D,A,F,G,| E,G,``````C,G,````D,G, |   E,G,``C,G,`G,A,|
%
[V:1]    D2  D2 ^C2  |D2-  DE``FG  |[FA]>[EG] [D2F2] [^C2E2]|([^C2E2] D2)  z  ||
[V:2]    F,A,D,A,E,A,|F,A, D,2 z2  |G,2        A,2     A,,2 |   D,2   A,,2 D,,||
